epam-assets/icon-sources/18/social-network-yammer.svg

<svg width="18" height="18" viewBox="0 0 18 18" fill="none" xmlns="http://www.w3.org/2000/svg">
<path fill-rule="evenodd" clip-rule="evenodd" d="M10.4918 4.77055L7.15542 13.1062C7.14011 13.1659 6.45141 15 4.13278 15C3.71016 15 3.36755 14.6662 3.36755 14.2544C3.36755 13.8369 3.71191 13.5088 4.13278 13.5088C5.32653 13.5088 5.68619 12.6738 5.72445 12.5843L6.00758 11.8313L3.05381 4.77801C2.90077 4.39776 3.08442 3.95786 3.47469 3.80874C3.86495 3.65217 4.31643 3.83111 4.47713 4.21882L6.82637 9.83308L9.06848 4.22627C9.22152 3.83857 9.66535 3.65217 10.0786 3.80129C10.4612 3.9504 10.6525 4.38284 10.4918 4.77055ZM14.2873 5.10606C14.1496 5.10606 14.0042 5.15825 13.9047 5.24772C13.9047 5.24772 10.6908 7.47703 10.8438 7.71562C10.9892 7.9542 14.5398 6.33628 14.5475 6.31391C14.7847 6.23936 14.9607 6.00822 14.9607 5.73981C14.9607 5.38939 14.6699 5.10606 14.2873 5.10606ZM14.8765 12.9049C14.8 12.7782 14.6699 12.6812 14.5398 12.6216C14.5398 12.6216 10.9739 11.0037 10.8438 11.2422C10.6984 11.4883 13.9047 13.7101 13.9047 13.7101C14.096 13.8742 14.3868 13.904 14.624 13.7698C14.9378 13.5983 15.0525 13.2106 14.8765 12.9049ZM16.1774 8.86382C16.0397 8.78926 15.8943 8.76689 15.7412 8.78926C15.7412 8.78926 11.8309 9.18442 11.8386 9.46029C11.8462 9.73616 15.7489 10.0418 15.7565 10.0418C16.0167 10.0791 16.2845 9.96729 16.4223 9.7287C16.583 9.42301 16.4912 9.03531 16.1774 8.86382Z" fill="#6C6F80"/>
</svg>

<svg xmlns="http://www.w3.org/2000/svg" width="18" height="18" fill="none" viewBox="0 0 18 18">
  <path fill="#6C6F80" fill-rule="evenodd" d="m10.492 4.77-3.337 8.336C7.14 13.166 6.451 15 4.133 15a.756.756 0 0 1-.765-.746c0-.417.344-.745.765-.745 1.194 0 1.553-.835 1.591-.925l.284-.753-2.954-7.053a.741.741 0 0 1 .42-.97.773.773 0 0 1 1.003.41l2.35 5.615 2.241-5.607c.154-.387.597-.574 1.01-.425.383.15.575.582.414.97Zm3.795.336a.59.59 0 0 0-.382.142s-3.214 2.229-3.061 2.468c.145.238 3.696-1.38 3.704-1.402a.603.603 0 0 0 .413-.574c0-.35-.291-.634-.674-.634Zm.59 7.799a.768.768 0 0 0-.337-.283s-3.566-1.618-3.696-1.38c-.146.246 3.06 2.468 3.06 2.468a.633.633 0 0 0 .72.06.628.628 0 0 0 .252-.865Zm1.3-4.041a.684.684 0 0 0-.436-.075s-3.91.395-3.902.671c.007.276 3.91.582 3.918.582a.655.655 0 0 0 .665-.313.639.639 0 0 0-.245-.865Z" clip-rule="evenodd"/>
</svg>
